svg/monitor_cellphone_star.svg

<svg xmlns="http://www.w3.org/2000/svg" viewBox="0 0 24 24"><path d="M23 11h-5a1 1 0 0 0-1 1v9a1 1 0 0 0 1 1h5a1 1 0 0 0 1-1v-9a1 1 0 0 0-1-1m0 9h-5v-7h5zM20 2H2C.89 2 0 2.89 0 4v12a2 2 0 0 0 2 2h7v2H7v2h8v-2h-2v-2h2v-2H2V4h18v5h2V4a2 2 0 0 0-2-2m-8.03 7L11 6l-.97 3H7l2.47 1.76-.94 2.91 2.47-1.8 2.47 1.8-.94-2.91L15 9z"/></svg>

<?xml version="1.0" encoding="UTF-8"?><!DOCTYPE svg PUBLIC "-//W3C//DTD SVG 1.1//EN" "http://www.w3.org/Graphics/SVG/1.1/DTD/svg11.dtd"><svg xmlns="http://www.w3.org/2000/svg" xmlns:xlink="http://www.w3.org/1999/xlink" version="1.1" id="mdi-monitor-cellphone-star" width="24" height="24" viewBox="0 0 24 24"><path d="M23,11H18A1,1 0 0,0 17,12V21A1,1 0 0,0 18,22H23A1,1 0 0,0 24,21V12A1,1 0 0,0 23,11M23,20H18V13H23V20M20,2H2C0.89,2 0,2.89 0,4V16A2,2 0 0,0 2,18H9V20H7V22H15V20H13V18H15V16H2V4H20V9H22V4C22,2.89 21.1,2 20,2M11.97,9L11,6L10.03,9H7L9.47,10.76L8.53,13.67L11,11.87L13.47,13.67L12.53,10.76L15,9H11.97Z" /></svg>
